Papirus-Dark/16x16/actions/transform-affect-rounded-corners.svg

<?xml version="1.0" encoding="UTF-8" standalone="no"?>
<svg xmlns:osb="http://www.openswatchbook.org/uri/2009/osb" xmlns:dc="http://purl.org/dc/elements/1.1/" xmlns:cc="http://creativecommons.org/ns#" xmlns:rdf="http://www.w3.org/1999/02/22-rdf-syntax-ns#" xmlns:svg="http://www.w3.org/2000/svg" xmlns="http://www.w3.org/2000/svg" width="16" height="16" viewBox="0 0 16 16" id="svg6394" version="1.1">
    <defs id="defs6396">
        <linearGradient id="linearGradient19282" osb:paint="solid" gradientTransform="matrix(-0.40801424,2.7359005,1.4465395,0.18903615,2588.4859,828.26016)">
            <stop style="stop-color:#ffffff;stop-opacity:1;" offset="0" id="stop19284"/>
        </linearGradient>
        <linearGradient id="linearGradient19282-3" osb:paint="solid" gradientTransform="matrix(-2.7359006,0.40801425,-0.18903616,-1.4465395,-804.26018,-2564.486)">
            <stop style="stop-color:#ffffff;stop-opacity:1;" offset="0" id="stop19284-6"/>
        </linearGradient>
        <linearGradient gradientTransform="matrix(-2.73658,0.4081035,-0.1890831,-1.446856,-1254.4599,-3933.7766)" osb:paint="solid" id="linearGradient19282-36">
            <stop id="stop19284-7" offset="0" style="stop-color:#666666;stop-opacity:1;"/>
        </linearGradient>
    </defs>
    <metadata id="metadata6399">
        <rdf:RDF>
            <cc:Work rdf:about="">
                <dc:format>
                    image/svg+xml
                </dc:format>
                <dc:type rdf:resource="http://purl.org/dc/dcmitype/StillImage"/>
                <dc:title/>
            </cc:Work>
        </rdf:RDF>
    </metadata>
    <path id="path4357" d="M 2.5078125 2 A 0.5 0.5 0 0 0 2.5078125 3 L 8.0039062 3 C 9.6575692 3 10.894488 3.4667953 11.722656 4.2402344 C 12.550824 5.0136735 13 6.1109892 13 7.5 A 0.5 0.5 0 0 0 14 7.5 C 14 5.8889718 13.449984 4.4863493 12.404297 3.5097656 C 11.35861 2.533182 9.8481072 2 8.0039062 2 L 2.5078125 2 z M 2.5078125 5 A 0.5 0.5 0 0 0 2.5078125 6 L 6.5039062 6 C 7.6864549 6 8.4147326 6.2363642 8.8457031 6.6484375 C 9.2766737 7.0605108 9.5019531 7.7231633 9.5019531 8.8007812 A 0.49999995 0.49999995 0 0 0 10.501953 8.8007812 C 10.501953 7.5783695 10.228499 6.588722 9.5351562 5.9257812 C 8.8418138 5.2628407 7.8198316 5 6.5039062 5 L 2.5078125 5 z M 11.007812 9.0136719 L 11.007812 11.007812 L 9.0058594 11.007812 L 9.0058594 12.003906 L 11.007812 12.003906 L 11.007812 14 L 14.011719 11.505859 L 11.007812 9.0136719 z M 4 10.992188 L 4 12.021484 L 5 12.021484 L 5 10.992188 L 4 10.992188 z M 6.0175781 10.992188 L 6.0175781 12.021484 L 6.5019531 12.021484 L 7.5039062 12.021484 L 7.9882812 12.021484 L 7.9882812 10.992188 L 7.5039062 10.992188 L 6.5019531 10.992188 L 6.0175781 10.992188 z " style="color:#000000;font-style:normal;font-variant:normal;font-weight:normal;font-stretch:normal;font-size:medium;line-height:normal;font-family:sans-serif;text-indent:0;text-align:start;text-decoration:none;text-decoration-line:none;text-decoration-style:solid;text-decoration-color:#000000;letter-spacing:normal;word-spacing:normal;text-transform:none;direction:ltr;block-progression:tb;writing-mode:lr-tb;baseline-shift:baseline;text-anchor:start;white-space:normal;clip-rule:nonzero;display:inline;overflow:visible;visibility:visible;opacity:0.72;isolation:auto;mix-blend-mode:normal;color-interpolation:sRGB;color-interpolation-filters:linearRGB;solid-color:#000000;solid-opacity:1;fill:#ffffff;fill-opacity:1;fill-rule:nonzero;stroke:none;stroke-width:2.78354359;stroke-linecap:square;stroke-linejoin:miter;stroke-miterlimit:4;stroke-dasharray:none;stroke-dashoffset:0;stroke-opacity:1;color-rendering:auto;image-rendering:auto;shape-rendering:auto;text-rendering:auto;enable-background:accumulate"/>
    <g transform="matrix(0.695835,0,0,0.741921,-190.82777,-226.2737)" id="transform-affect-stroke">
        <path id="path5760" d="m 670.8773,245.7 14.3712,0 0,5.3914" style="fill:none;stroke:#000000;stroke-width:2.78354359;stroke-linecap:square"/>
        <path id="path5762" d="m 670.1587,250.4175 10.0599,0 0,2.6957" style="fill:none;stroke:#000000;stroke-width:1.39177203px;stroke-linecap:square"/>
        <g id="g5772">
            <path id="path12910" d="m 682.3742,253.78713 0,2.69567 -2.8742,0 0,1.3479 2.8742,0 0,2.69569 4.3114,-3.36963 -4.3114,-3.36963 z" style="fill:#000000;fill-rule:evenodd"/>
            <path style="fill:none;stroke:#000000;stroke-width:1.39177203px;stroke-linecap:square" d="m 505.9072,37.19576 1.4371,0" id="path5764" transform="translate(170,219.961)"/>
            <path style="fill:none;stroke:#000000;stroke-width:1.39177203px" d="m 672.3144,257.1568 1.4371,0" id="path5770"/>
        </g>
    </g>
</svg>

<?xml version="1.0" encoding="UTF-8" standalone="no"?>
<svg id="svg6394" xmlns:rdf="http://www.w3.org/1999/02/22-rdf-syntax-ns#" xmlns="http://www.w3.org/2000/svg" xmlns:osb="http://www.openswatchbook.org/uri/2009/osb" height="16" width="16" version="1.1" xmlns:cc="http://creativecommons.org/ns#" viewBox="0 0 16 16" xmlns:dc="http://purl.org/dc/elements/1.1/">
 <metadata id="metadata6399">
  <rdf:RDF>
   <cc:Work rdf:about="">
    <dc:format>image/svg+xml</dc:format>
    <dc:type rdf:resource="http://purl.org/dc/dcmitype/StillImage"/>
    <dc:title/>
   </cc:Work>
  </rdf:RDF>
 </metadata>
 <path id="path4357" opacity="1" fill="#d3dae3" style="fill-rendering:auto;text-decoration-fill:#d3dae3;fill:#d3dae3;isolation:auto;mix-blend-mode:normal;shape-rendering:auto;solid-fill:#d3dae3;block-progression:tb;text-decoration-line:none;text-decoration-style:solid;image-rendering:auto;white-space:normal;text-indent:0;text-transform:none" d="m2.5078 2a0.5 0.5 0 0 0 0 1h5.4961c1.6537 0 2.8901 0.4668 3.7191 1.2402 0.828 0.7735 1.277 1.8708 1.277 3.2598a0.5 0.5 0 0 0 1 0c0-1.611-0.55-3.0137-1.596-3.9902-1.045-0.9766-2.5559-1.5098-4.4001-1.5098h-5.4961zm0 3a0.5 0.5 0 0 0 0 1h3.9961c1.1826 0 1.9108 0.2364 2.3418 0.6484 0.431 0.4121 0.6563 1.0748 0.6563 2.1524a0.5 0.5 0 0 0 1 0c0-1.2224-0.274-2.2121-0.9668-2.875-0.6934-0.663-1.7154-0.9258-3.0313-0.9258h-3.9961zm8.5002 4.0137v1.9943h-2.0021v0.996h2.0021v1.996l3.004-2.494-3.004-2.4923zm-7.008 1.9783v1.029h1v-1.029h-1zm2.0176 0v1.029h0.4844 1.0019 0.4844v-1.029h-0.4844-1.0019-0.4844z"/>
 <g id="transform-affect-stroke" transform="matrix(.69584 0 0 .74192 -190.83 -226.27)">
  <path id="path5760" d="m670.88 245.7h14.371v5.3914" stroke="#d3dae3" stroke-linecap="square" stroke-width="2.7835" fill="none"/>
  <path id="path5762" d="m670.16 250.42h10.06v2.6957" stroke="#d3dae3" stroke-linecap="square" stroke-width="1.3918px" fill="none"/>
  <g id="g5772">
   <path id="path12910" fill-rule="evenodd" d="m682.37 253.79v2.6957h-2.8742v1.3479h2.8742v2.6957l4.3114-3.3696-4.3114-3.3696z"/>
   <path id="path5764" d="m505.91 37.196h1.4371" transform="translate(170 219.96)" stroke="#d3dae3" stroke-linecap="square" stroke-width="1.3918px" fill="none"/>
   <path id="path5770" d="m672.31 257.16h1.4371" stroke="#d3dae3" stroke-width="1.3918px" fill="none"/>
  </g>
 </g>
</svg>
